X:77
T:(Danse des Paysans - continued)
T:John Malchair's Third Collection of Tunes
%%VWML:Malchair-3619-p77
F:https://www.vwml.org/record/Malchair/3619/p77
F:www.vwml.org/topics/historic-dance-and-tune-books/Malchair
Z:Eric Conrad Mar 2020
M:3/4
L:1/8
% continuation of last tune on page 76
K:Cm
(eg)e(g f)e | (df) d(fed) | e(d c)e (gc) | c(=Bd)B G2 |
(eg)e(g f)e | (df)d(f ed) | e(d c)e(d=B) | (cd/e/) c4 :|
T:autre.
M:3/4
K:Am
|: {f}ec A2 z2 | ^cdef ge | !trill!f2 {ef}A2 (d^c) | {c}d2 d4 :|
|: f{(gf)}efg af | gfef ge | {g}fe dfed | ^cdec Ac | defg aA | d2 A4 :|
T:(untitled)
Q:"Grave"
M:2/4
K:Cm
|: G=B/G/ {(c d)} ee/c/ | df/d/ {d}e z | G^B/G/ {(c d)} ee/c/ | ed/=B/ G z :|
D>F EC/E/ | D>F EC/E/ | D>F E/D/C/=B,/ | {B,}C2 z2 |]
% Note: In the line marked "Grave", the MS has a C clef on line 1 before the G clef.


